data/playwrite-pt.svg

<svg width="103.04" height="29.61" viewBox="0 0 103.04 29.61" xmlns="http://www.w3.org/2000/svg"><path transform="translate(0 21.378) scale(.014 -.014)" d="m481 415q-17-1-25.5 10t-8.5 28 6.5 27 21.5 11q70 2 128 18t104.5 43.5 78.5 65.5 48.5 84.5 16.5 100.5q0 52-21 91.5t-61 66.5-97 40-129 13q-94 0-171-18.5t-139-55.5-111-92q-12-13-25.5-15t-28.5 10q-16 13-17.5 26.5t9.5 27.5q38 48 89 85t113 62 134 38.5 153 13.5q95 0 168.5-19.5t124-57 76-92 25.5-123.5q0-67-21-124.5t-60.5-104.5-96-81-128-54.5-156.5-24.5zm-261-433q-45 0-81 17t-60 41-37 43q-11 18-10 32t17 25q18 11 30.5 7.5t26.5-18.5q17-19 33.5-33t37-21.5 46.5-7.5q43 0 63 34t20 107v676q0 14 11 21t33 7 33-7 11-21v-684q0-66-19.5-115t-57.5-76-97-27z"/><path transform="translate(13.748 21.378) scale(.014 -.014)" d="m-57-17q-19 0-28 11.5t-9 26 9 26 28 11.5q31 0 60.5 15.5t58.5 44.5 55.5 70 50.5 91 44.5 108.5 37 123 28 133 17.5 139.5 6 142q0 15 13 23.5t30.5 8.5 30.5-8.5 13-23.5q0-72-8-145.5t-22-146.5-34.5-143-45.5-134.5-55-121.5-63-102.5-68.5-79-73-51.5-75.5-18zm278 0q-26 0-45 7t-30.5 20-17 32.5-5.5 43.5v822q0 97 33.5 144.5t101.5 47.5q44 0 72.5-19.5t43-58.5 14.5-97q0-19-13-28t-30.5-9-30.5 9-13 28q0 33-5 53.5t-14.5 31-24.5 10.5q-16 0-27-10.5t-16-35-5-66.5v-812q0-13 4-21.5t11-12.5 16-4 16.5 3 14.5 8.5 14 10.5q8 7 18 2.5t17-12.5q8-10 8.5-20t-4.5-19q-11-15-28-26t-36-16.5-39-5.5z"/><path transform="translate(19.264 21.378) scale(.014 -.014)" d="m258-17q-57 0-101 27.5t-69 83.5-25 141q0 52 9.5 96t28.5 79 46 59 62 37 77 13q32 0 66-10.5t64-27.5v5q0 15 11 22t33 7 32.5-6.5 10.5-20.5v-392q0-13 4-21.5t11-12.5 16-4q10 0 16.5 2.5t13 7.5 15.5 12q7 6 16 3.5t18-10.5q9-10 10-21t-4-19q-11-16-28-27t-36.5-17-39.5-6q-23 0-40 5t-29 15.5-18.5 25.5-9.5 34q0 1-1 4.5t-1 7.5q-23-37-49.5-57t-54.5-27.5-54-7.5zm-107 256q0-55 13-94.5t39.5-60.5 66.5-21q29 0 55.5 10t49.5 33 41 60v242q-31 19-60 25.5t-61 6.5q-26 0-48-8t-40-24-30.5-40-19-56-6.5-73z"/><path transform="translate(27.972 21.378) scale(.014 -.014)" d="m489-22q16 11 32.5 22t31.5 21 28.5 18 23.5 13q15 8 26.5 2t16.5-19 2-27-17-22q-13-7-29.5-17t-34-22.5-36-25-35.5-24.5zm-163-578q-47 0-82 18t-54 52.5-19 83.5q0 39 10.5 80t32.5 82.5 54.5 83 77.5 81.5q22 16 44 33t45 33v130q-13-22-30.5-39.5t-38.5-29.5-45.5-18.5-51.5-6.5q-58 0-97 20.5t-58.5 61-19.5 101.5v323q0 13 10.5 19.5t31.5 6.5q22 0 33-6.5t11-19.5v-323q0-35 11-59t33.5-36 55.5-12q28 0 52 9t43.5 24.5 34.5 37.5 25 47v312q0 13 10.5 19.5t32.5 6.5q21 0 32-6.5t11-19.5v-833q0-61-13.5-108.5t-39-80.5-61.5-50-81-17zm5 77q25 0 44 12t32.5 34.5 20.5 56.5 7 78v195q-18-12-35-23.5t-35-24.5q-24-25-43.5-55t-33.5-62-21-64-7-64q0-26 8-44.5t24-28.5 39-10z"/><path transform="translate(36.932 21.378) scale(.014 -.014)" d="m279-17q-39 0-67.5 12t-48 36.5-29 62-9.5 89.5v186q0 42-13 56.5t-36 14.5q-16 0-28-9t-18.5-26-8.5-40q-1-16-9-23.5t-26-7.5q-16 0-26 7t-9 33q2 43 17.5 74.5t43.5 49 64 17.5q35 0 60.5-10t42-31 24.5-52 8-73v-143q0-39 3-67t12-45.5 25.5-26 42.5-8.5q20 0 42 7.5t41 26.5 30.5 52.5 11.5 84.5l29-120q-12-31-29.5-55t-40-40-47.5-24-52-8zm305-2q-40 0-70.5 13t-51.5 39-32 65-11 91v300q0 13 10.5 19.5t31.5 6.5q22 0 33-6.5t11-19.5v-283q0-39 3.5-67t13-45 26.5-25 45-8q19 0 36 4.5t31.5 15 26 27 19.5 40 12.5 55 4.5 71.5q0 81-8.5 125t-22.5 61.5-33 17.5q-18 0-24.5-10.5t-6.5-22.5q0-13 10-26t35.5-21 70.5-8q38 0 72 16t70 39q12 8 22 2t16.5-18 6-24.5-9.5-18.5q-43-30-83.5-46t-93.5-16q-61 0-101 15.5t-59 43-19 62.5q0 27 11 47.5t32 32 51 11.5q53 0 86-34t48.5-93 15.5-135q0-46-6.5-85.5t-19-72-31-57.5-43.5-42.5-56.5-26.5-68.5-9z"/><path transform="translate(49.364 21.378) scale(.014 -.014)" d="m-55-17q-19 0-28.5 11.5t-10 26 8.5 26 28 11.5q31 0 57 24t47 71.5 37 117.5 26 162l60-9q-9-112-27.5-195t-46.5-137.5-65.5-81.5-85.5-27zm515 0q-26 0-45 7t-31 20.5-18 34-6 46.5q0 28 2.5 64t5 74 5 72.5 2.5 59.5q0 39-9.5 53.5t-35.5 14.5q-28 0-64-10t-70-19.5-55-9.5q-18 0-34.5 19.5t-27.5 48-11 55.5q0 18 6 32t17.5 22 29.5 8q33 0 44-23t11-54q0-7 0-14t-1-15q12 0 39 11t62.5 22 71.5 11q40 0 65-15t36.5-46.5 11.5-82.5q0-23-2.5-58.5t-5-75-5-74.5-2.5-58q0-26 7.5-35.5t22.5-9.5q10 0 18 3t15.5 8.5 14.5 10.5q8 6 18 2t17-12q8-10 8.5-20t-4.5-19q-11-15-27.5-26t-36-16.5-39.5-5.5z"/><path transform="translate(57.316 21.378) scale(.014 -.014)" d="m193-17q-52 0-75.5 27t-23.5 76v403q0 13 10.5 19.5t31.5 6.5q22 0 33-6.5t11-19.5v-393q0-20 9-29t22-9q11 0 18.5 3.5t14 8.5 14.5 11q6 5 16.5 1t16.5-12q8-9 9-19t-5-18q-11-16-27.5-27t-36-17-38.5-6zm-55 686q-28 0-42.5 15.5t-14.5 46.5q0 32 14.5 48t42.5 16q27 0 41-16t14-48q1-31-13.5-46.5t-41.5-15.5z"/><path transform="translate(61.516 21.378) scale(.014 -.014)" d="m243-17q-42 0-69.5 15.5t-41 44-13.5 68.5v309h-78q-15 0-21 9t-6 31q0 23 6 31.5t21 8.5h78v204q0 13 10.5 19.5t31.5 6.5q22 0 33-6.5t11-19.5v-204h126q15 0 21.5-8.5t6.5-31.5q0-22-6.5-31t-21.5-9h-126v-299q0-34 9.5-48.5t34.5-14.5q23 0 39.5 11t34.5 27q12 11 22.5 7.5t19.5-12.5q11-10 11.5-20.5t-5.5-19.5q-17-25-38-40t-44-21.5-46-6.5z"/><path transform="translate(66.948 21.378) scale(.014 -.014)" d="m300-17q-40 0-77.5 17t-69 48-55 73.5-36.5 93-13 106.5q0 34 8 64.5t23 55 36 42 47 27 56 9.5q57 0 92.5-23t51.5-60.5 16-80.5q0-34-12.5-70t-34.5-70.5-51-66.5q-43-48-98-85.5t-116.5-58.5-126.5-21q-14 0-21 11.5t-5.5 26 12.5 26 33 11.5q46 0 94.5 18t92.5 48 75 65q22 25 37.5 51.5t23.5 53.5 8 52q0 53-20 73.5t-54 20.5q-17 0-31.5-7.5t-25.5-23-17-37.5-6-51q0-57 16.5-104.5t43.5-81.5 57.5-53 57.5-19q19 0 37 7.5t37.5 22.5 39.5 37q14 16 27 15.5t27-11.5 16.5-23-6.5-26q-25-38-58.5-60.5t-67.5-32-63-9.5z"/><path transform="translate(77.364 21.378) scale(.014 -.014)" d="m481 415q-17-1-25.5 10t-8.5 28 6.5 27 21.5 11q70 2 128 18t104.5 43.5 78.5 65.5 48.5 84.5 16.5 100.5q0 52-21 91.5t-61 66.5-97 40-129 13q-94 0-171-18.5t-139-55.5-111-92q-12-13-25.5-15t-28.5 10q-16 13-17.5 26.5t9.5 27.5q38 48 89 85t113 62 134 38.5 153 13.5q95 0 168.5-19.5t124-57 76-92 25.5-123.5q0-67-21-124.5t-60.5-104.5-96-81-128-54.5-156.5-24.5zm-261-433q-45 0-81 17t-60 41-37 43q-11 18-10 32t17 25q18 11 30.5 7.5t26.5-18.5q17-19 33.5-33t37-21.5 46.5-7.5q43 0 63 34t20 107v676q0 14 11 21t33 7 33-7 11-21v-684q0-66-19.5-115t-57.5-76-97-27z"/><path transform="translate(91.112 21.378) scale(.014 -.014)" d="m324-18q-46 0-81.5 17t-60 41-37.5 43q-11 18-10 32t19 25 29.5 7.5 25.5-18.5q17-19 34.5-33t37.5-21.5 46-7.5q43 0 63 34t20 107v789h-159q-54 0-89-11t-54-35-30-63q-4-17-15.5-22.5t-32.5-0.5q-17 5-23 16t-2 28q11 41 31 72.5t51.5 53 75.5 32 101 10.5h557q15 0 21-8.5t6-31.5q0-22-6-31t-21-9h-323v-797q0-66-19-115t-57.5-76-97.5-27z"/></svg>

<?xml version="1.0" encoding="utf-8" ?>
<svg baseProfile="tiny" height="100%" version="1.2" width="100%" xmlns="http://www.w3.org/2000/svg" xmlns:ev="http://www.w3.org/2001/xml-events" xmlns:xlink="http://www.w3.org/1999/xlink"><defs /><g><path d="M481 415Q464 414 455.5 425.0Q447 436 447 453Q447 470 453.5 480.0Q460 490 475 491Q545 493 603.0 509.0Q661 525 707.5 552.5Q754 580 786.0 618.0Q818 656 834.5 702.5Q851 749 851 803Q851 855 830.0 894.5Q809 934 769.0 961.0Q729 988 672.0 1001.0Q615 1014 543 1014Q449 1014 372.0 995.5Q295 977 233.0 940.0Q171 903 122 848Q110 835 96.5 833.0Q83 831 68 843Q52 856 50.5 869.5Q49 883 60 897Q98 945 149.0 982.0Q200 1019 262.0 1044.0Q324 1069 396.0 1082.5Q468 1096 549 1096Q644 1096 717.5 1076.5Q791 1057 841.5 1019.5Q892 982 917.5 927.5Q943 873 943 804Q943 737 922.0 679.5Q901 622 861.5 575.0Q822 528 765.5 494.0Q709 460 637.5 439.5Q566 419 481 415ZM220 -18Q175 -18 139.0 -1.0Q103 16 79.0 40.0Q55 64 42 83Q31 101 32.0 115.0Q33 129 49 140Q67 151 79.5 147.5Q92 144 106 129Q123 110 139.5 96.0Q156 82 176.5 74.5Q197 67 223 67Q266 67 286.0 101.0Q306 135 306 208V884Q306 898 317.0 905.0Q328 912 350 912Q372 912 383.0 905.0Q394 898 394 884V200Q394 134 374.5 85.0Q355 36 317.0 9.0Q279 -18 220 -18Z" transform="translate(0.0, 72) scale(0.072, -0.072)" /><path d="M-57 -17Q-76 -17 -85.0 -5.5Q-94 6 -94.0 20.5Q-94 35 -85.0 46.5Q-76 58 -57 58Q-26 58 3.5 73.5Q33 89 62.0 118.0Q91 147 117.5 188.0Q144 229 168.0 279.0Q192 329 212.5 387.5Q233 446 249.5 510.5Q266 575 277.5 643.5Q289 712 295.0 783.0Q301 854 301 925Q301 940 314.0 948.5Q327 957 344.5 957.0Q362 957 375.0 948.5Q388 940 388 925Q388 853 380.0 779.5Q372 706 358.0 633.0Q344 560 323.5 490.0Q303 420 278.0 355.5Q253 291 223.0 234.0Q193 177 160.0 131.5Q127 86 91.5 52.5Q56 19 18.5 1.0Q-19 -17 -57 -17ZM221 -17Q195 -17 176.0 -10.0Q157 -3 145.5 10.0Q134 23 128.5 42.5Q123 62 123 86V908Q123 1005 156.5 1052.5Q190 1100 258 1100Q302 1100 330.5 1080.5Q359 1061 373.5 1022.0Q388 983 388 925Q388 906 375.0 897.0Q362 888 344.5 888.0Q327 888 314.0 897.0Q301 906 301 925Q301 958 296.0 978.5Q291 999 281.5 1009.5Q272 1020 257 1020Q241 1020 230.0 1009.5Q219 999 214.0 974.5Q209 950 209 908V96Q209 83 213.0 74.5Q217 66 224.0 62.0Q231 58 240 58Q249 58 256.5 61.0Q264 64 271.0 69.5Q278 75 285 80Q293 87 303.0 82.5Q313 78 320 70Q328 60 328.5 50.0Q329 40 324 31Q313 16 296.0 5.0Q279 -6 260.0 -11.5Q241 -17 221 -17Z" transform="translate(70.704, 72) scale(0.072, -0.072)" /><path d="M258 -17Q201 -17 157.0 10.5Q113 38 88.0 94.0Q63 150 63 235Q63 287 72.5 331.0Q82 375 101.0 410.0Q120 445 147.0 469.0Q174 493 209.0 506.0Q244 519 286 519Q318 519 352.0 508.5Q386 498 416 481V486Q416 501 427.0 508.0Q438 515 460 515Q482 515 492.5 508.5Q503 502 503 488V96Q503 83 507.0 74.5Q511 66 518.0 62.0Q525 58 534 58Q544 58 550.5 60.5Q557 63 563.5 68.0Q570 73 579 80Q586 86 595.0 83.5Q604 81 613 73Q622 63 623.0 52.0Q624 41 619 33Q608 17 591.0 6.0Q574 -5 554.5 -11.0Q535 -17 515 -17Q492 -17 475.0 -12.0Q458 -7 446.0 3.5Q434 14 427.5 29.0Q421 44 418 63Q418 64 417.0 67.5Q416 71 416 75Q393 38 366.5 18.0Q340 -2 312.0 -9.5Q284 -17 258 -17ZM151 239Q151 184 164.0 144.5Q177 105 203.5 84.0Q230 63 270 63Q299 63 325.5 73.0Q352 83 375.0 106.0Q398 129 416 166V408Q385 427 356.0 433.5Q327 440 295 440Q269 440 247.0 432.0Q225 424 207.0 408.0Q189 392 176.5 368.0Q164 344 157.5 312.0Q151 280 151 239Z" transform="translate(99.07199999999999, 72) scale(0.072, -0.072)" /><path d="M489 -22Q505 -11 521.5 0.0Q538 11 553.0 21.0Q568 31 581.5 39.0Q595 47 605 52Q620 60 631.5 54.0Q643 48 648.0 35.0Q653 22 650.0 8.0Q647 -6 633 -14Q620 -21 603.5 -31.0Q587 -41 569.5 -53.5Q552 -66 533.5 -78.5Q515 -91 498 -103ZM326 -600Q279 -600 244.0 -582.0Q209 -564 190.0 -529.5Q171 -495 171 -446Q171 -407 181.5 -366.0Q192 -325 214.0 -283.5Q236 -242 268.5 -200.5Q301 -159 346 -119Q368 -103 390.0 -86.0Q412 -69 435 -53V77Q422 55 404.5 37.5Q387 20 366.0 8.0Q345 -4 320.5 -10.5Q296 -17 269 -17Q211 -17 172.0 3.5Q133 24 113.5 64.5Q94 105 94 166V489Q94 502 104.5 508.5Q115 515 136 515Q158 515 169.0 508.5Q180 502 180 489V166Q180 131 191.0 107.0Q202 83 224.5 71.0Q247 59 280 59Q308 59 332.0 68.0Q356 77 375.5 92.5Q395 108 410.0 130.0Q425 152 435 177V489Q435 502 445.5 508.5Q456 515 478 515Q499 515 510.0 508.5Q521 502 521 489V-344Q521 -405 507.5 -452.5Q494 -500 468.5 -533.0Q443 -566 407.0 -583.0Q371 -600 326 -600ZM331 -523Q356 -523 375.0 -511.0Q394 -499 407.5 -476.5Q421 -454 428.0 -420.0Q435 -386 435 -342V-147Q417 -159 400.0 -170.5Q383 -182 365 -195Q341 -220 321.5 -250.0Q302 -280 288.0 -312.0Q274 -344 267.0 -376.0Q260 -408 260 -440Q260 -466 268.0 -484.5Q276 -503 292.0 -513.0Q308 -523 331 -523Z" transform="translate(143.856, 72) scale(0.072, -0.072)" /><path d="M279 -17Q240 -17 211.5 -5.0Q183 7 163.5 31.5Q144 56 134.5 93.5Q125 131 125 183V369Q125 411 112.0 425.5Q99 440 76 440Q60 440 48.0 431.0Q36 422 29.5 405.0Q23 388 21 365Q20 349 12.0 341.5Q4 334 -14 334Q-30 334 -40.0 341.0Q-50 348 -49 374Q-47 417 -31.5 448.5Q-16 480 12.0 497.5Q40 515 76 515Q111 515 136.5 505.0Q162 495 178.5 474.0Q195 453 203.0 422.0Q211 391 211 349V206Q211 167 214.0 139.0Q217 111 226.0 93.5Q235 76 251.5 67.5Q268 59 294 59Q314 59 336.0 66.5Q358 74 377.0 93.0Q396 112 407.5 145.5Q419 179 419 230L448 110Q436 79 418.5 55.0Q401 31 378.5 15.0Q356 -1 331.0 -9.0Q306 -17 279 -17ZM584 -19Q544 -19 513.5 -6.0Q483 7 462.0 33.0Q441 59 430.0 98.0Q419 137 419 189V489Q419 502 429.5 508.5Q440 515 461 515Q483 515 494.0 508.5Q505 502 505 489V206Q505 167 508.5 139.0Q512 111 521.5 94.0Q531 77 548.0 69.0Q565 61 593 61Q612 61 629.0 65.5Q646 70 660.5 80.5Q675 91 686.5 107.5Q698 124 706.0 147.5Q714 171 718.5 202.5Q723 234 723 274Q723 355 714.5 399.0Q706 443 692.0 460.5Q678 478 659 478Q641 478 634.5 467.5Q628 457 628 445Q628 432 638.0 419.0Q648 406 673.5 398.0Q699 390 744 390Q782 390 816.0 406.0Q850 422 886 445Q898 453 908.0 447.0Q918 441 924.5 429.0Q931 417 930.5 404.5Q930 392 921 386Q878 356 837.5 340.0Q797 324 744 324Q683 324 643.0 339.5Q603 355 584.0 382.5Q565 410 565 445Q565 472 576.0 492.5Q587 513 608.0 524.5Q629 536 659 536Q712 536 745.0 502.0Q778 468 793.5 409.0Q809 350 809 274Q809 228 802.5 188.5Q796 149 783.5 116.5Q771 84 752.5 59.0Q734 34 709.0 16.5Q684 -1 652.5 -10.0Q621 -19 584 -19Z" transform="translate(189.93599999999998, 72) scale(0.072, -0.072)" /><path d="M-55 -17Q-74 -17 -83.5 -5.5Q-93 6 -93.5 20.5Q-94 35 -85.0 46.5Q-76 58 -57 58Q-26 58 0.0 82.0Q26 106 47.0 153.5Q68 201 84.0 271.0Q100 341 110 433L170 424Q161 312 142.5 229.0Q124 146 96.0 91.5Q68 37 30.5 10.0Q-7 -17 -55 -17ZM460 -17Q434 -17 415.0 -10.0Q396 -3 384.0 10.5Q372 24 366.0 44.5Q360 65 360 91Q360 119 362.5 155.0Q365 191 367.5 229.0Q370 267 372.5 301.5Q375 336 375 361Q375 400 365.5 414.5Q356 429 330 429Q302 429 266.0 419.0Q230 409 196.0 399.5Q162 390 141 390Q123 390 106.5 409.5Q90 429 79.0 457.5Q68 486 68 513Q68 531 74.0 545.0Q80 559 91.5 567.0Q103 575 121 575Q154 575 165.0 552.0Q176 529 176 498Q176 491 176.0 484.0Q176 477 175 469Q187 469 214.0 480.0Q241 491 276.5 502.0Q312 513 348 513Q388 513 413.0 498.0Q438 483 449.5 451.5Q461 420 461 369Q461 346 458.5 310.5Q456 275 453.5 235.5Q451 196 448.5 161.0Q446 126 446 103Q446 77 453.5 67.5Q461 58 476 58Q486 58 494.0 61.0Q502 64 509.5 69.5Q517 75 524 80Q532 86 542.0 82.0Q552 78 559 70Q567 60 567.5 50.0Q568 40 563 31Q552 16 535.5 5.0Q519 -6 499.5 -11.5Q480 -17 460 -17Z" transform="translate(253.87199999999996, 72) scale(0.072, -0.072)" /><path d="M193 -17Q141 -17 117.5 10.0Q94 37 94 86V489Q94 502 104.5 508.5Q115 515 136 515Q158 515 169.0 508.5Q180 502 180 489V96Q180 76 189.0 67.0Q198 58 211 58Q222 58 229.5 61.5Q237 65 243.5 70.0Q250 75 258 81Q264 86 274.5 82.0Q285 78 291 70Q299 61 300.0 51.0Q301 41 295 33Q284 17 267.5 6.0Q251 -5 231.5 -11.0Q212 -17 193 -17ZM138 669Q110 669 95.5 684.5Q81 700 81 731Q81 763 95.5 779.0Q110 795 138 795Q165 795 179.0 779.0Q193 763 193 731Q194 700 179.5 684.5Q165 669 138 669Z" transform="translate(294.768, 72) scale(0.072, -0.072)" /><path d="M243 -17Q201 -17 173.5 -1.5Q146 14 132.5 42.5Q119 71 119 111V420H41Q26 420 20.0 429.0Q14 438 14 460Q14 483 20.0 491.5Q26 500 41 500H119V704Q119 717 129.5 723.5Q140 730 161 730Q183 730 194.0 723.5Q205 717 205 704V500H331Q346 500 352.5 491.5Q359 483 359 460Q359 438 352.5 429.0Q346 420 331 420H205V121Q205 87 214.5 72.5Q224 58 249 58Q272 58 288.5 69.0Q305 80 323 96Q335 107 345.5 103.5Q356 100 365 91Q376 81 376.5 70.5Q377 60 371 51Q354 26 333.0 11.0Q312 -4 289.0 -10.5Q266 -17 243 -17Z" transform="translate(316.368, 72) scale(0.072, -0.072)" /><path d="M300 -17Q260 -17 222.5 0.0Q185 17 153.5 48.0Q122 79 98.5 121.5Q75 164 62.0 214.5Q49 265 49 321Q49 355 57.0 385.5Q65 416 80.0 440.5Q95 465 116.0 482.5Q137 500 163.0 509.5Q189 519 219 519Q276 519 311.5 496.0Q347 473 363.0 435.5Q379 398 379 355Q379 321 366.5 285.0Q354 249 332.0 214.5Q310 180 281 148Q238 100 183.0 62.5Q128 25 66.5 4.0Q5 -17 -60 -17Q-74 -17 -81.0 -5.5Q-88 6 -86.5 20.5Q-85 35 -74.0 46.5Q-63 58 -41 58Q5 58 53.5 76.0Q102 94 146.0 124.0Q190 154 221 189Q243 214 258.5 240.5Q274 267 282.0 294.0Q290 321 290 346Q290 399 270.0 419.5Q250 440 216 440Q199 440 184.5 432.5Q170 425 159.0 409.5Q148 394 142.0 372.0Q136 350 136 321Q136 264 152.5 216.5Q169 169 196.0 135.0Q223 101 253.5 82.0Q284 63 311 63Q330 63 348.0 70.5Q366 78 385.5 93.0Q405 108 425 130Q439 146 452.0 145.5Q465 145 479 134Q493 123 495.5 111.0Q498 99 489 85Q464 47 430.5 24.5Q397 2 363.0 -7.5Q329 -17 300 -17Z" transform="translate(344.304, 72) scale(0.072, -0.072)" /><path d="M481 415Q464 414 455.5 425.0Q447 436 447 453Q447 470 453.5 480.0Q460 490 475 491Q545 493 603.0 509.0Q661 525 707.5 552.5Q754 580 786.0 618.0Q818 656 834.5 702.5Q851 749 851 803Q851 855 830.0 894.5Q809 934 769.0 961.0Q729 988 672.0 1001.0Q615 1014 543 1014Q449 1014 372.0 995.5Q295 977 233.0 940.0Q171 903 122 848Q110 835 96.5 833.0Q83 831 68 843Q52 856 50.5 869.5Q49 883 60 897Q98 945 149.0 982.0Q200 1019 262.0 1044.0Q324 1069 396.0 1082.5Q468 1096 549 1096Q644 1096 717.5 1076.5Q791 1057 841.5 1019.5Q892 982 917.5 927.5Q943 873 943 804Q943 737 922.0 679.5Q901 622 861.5 575.0Q822 528 765.5 494.0Q709 460 637.5 439.5Q566 419 481 415ZM220 -18Q175 -18 139.0 -1.0Q103 16 79.0 40.0Q55 64 42 83Q31 101 32.0 115.0Q33 129 49 140Q67 151 79.5 147.5Q92 144 106 129Q123 110 139.5 96.0Q156 82 176.5 74.5Q197 67 223 67Q266 67 286.0 101.0Q306 135 306 208V884Q306 898 317.0 905.0Q328 912 350 912Q372 912 383.0 905.0Q394 898 394 884V200Q394 134 374.5 85.0Q355 36 317.0 9.0Q279 -18 220 -18Z" transform="translate(397.872, 72) scale(0.072, -0.072)" /><path d="M324 -18Q278 -18 242.5 -1.0Q207 16 182.5 40.0Q158 64 145 83Q134 101 135.0 115.0Q136 129 154 140Q172 151 183.5 147.5Q195 144 209 129Q226 110 243.5 96.0Q261 82 281.0 74.5Q301 67 327 67Q370 67 390.0 101.0Q410 135 410 208V997H251Q197 997 162.0 986.0Q127 975 108.0 951.0Q89 927 78 888Q74 871 62.5 865.5Q51 860 30 865Q13 870 7.0 881.0Q1 892 5 909Q16 950 36.0 981.5Q56 1013 87.5 1034.5Q119 1056 163.0 1066.5Q207 1077 264 1077H821Q836 1077 842.0 1068.5Q848 1060 848 1037Q848 1015 842.0 1006.0Q836 997 821 997H498V200Q498 134 479.0 85.0Q460 36 421.5 9.0Q383 -18 324 -18Z" transform="translate(468.576, 72) scale(0.072, -0.072)" /></g></svg>
